packages/icons/svg/24/Events.svg

<svg width="24" height="24" viewBox="0 0 24 24" fill="none" xmlns="http://www.w3.org/2000/svg">
<path fill-rule="evenodd" clip-rule="evenodd" d="M4 7C4 5.34315 5.34315 4 7 4H17C18.6569 4 20 5.34315 20 7V17C20 18.6569 18.6569 20 17 20H7C5.34315 20 4 18.6569 4 17V7ZM11 8H13C13.5523 8 14 7.55228 14 7C14 6.44772 13.5523 6 13 6H11C10.4477 6 10 6.44772 10 7C10 7.55228 10.4477 8 11 8ZM6 10V17C6 17.5523 6.44772 18 7 18H17C17.5523 18 18 17.5523 18 17V10H6Z" fill="#858585"/>
</svg>

<svg width="24" height="24" fill="none" xmlns="http://www.w3.org/2000/svg" viewBox="0 0 24 24"><path fill-rule="evenodd" clip-rule="evenodd" d="M4 7a3 3 0 013-3h10a3 3 0 013 3v10a3 3 0 01-3 3H7a3 3 0 01-3-3V7zm7 1h2a1 1 0 100-2h-2a1 1 0 100 2zm-5 2v7a1 1 0 001 1h10a1 1 0 001-1v-7H6z" fill="currentColor"></path></svg>
